home/.icons/Gruvbox-Plus-Dark/apps/16/boswars.svg

<svg width="16" height="16" version="1.1" xmlns="http://www.w3.org/2000/svg">
  <defs>
    <style type="text/css" id="current-color-scheme">.ColorScheme-Text { color:#ebdbb2; } .ColorScheme-Highlight { color:#458588; }</style>
  </defs>
  <path class="ColorScheme-Text" fill="currentColor" d="m5.538 3.077c-0.679 0-1.23 0.551-1.23 1.231v1.846h6.769l-0.923-2.308c-0.185-0.465-0.635-0.77-1.135-0.769zm9.231 0.308v0.307h-4.058l0.501 1.231h3.557v0.308h1.231v-1.846zm-12.88 3.384c-0.41 0-0.79 0.214-1.019 0.558l-0.865 1.288v0.616h0.039c-0.029 0.281 0.018 0.567 0.192 0.827l1.173 1.769c0.452 0.684 1.218 1.096 2.038 1.096h9.116c0.822 0 1.581-0.411 2.038-1.096l1.173-1.769c0.161-0.244 0.229-0.537 0.193-0.827h0.038v-0.616l-0.865-1.288c-0.225-0.345-0.608-0.555-1.02-0.558zm-0.557 2.462h13.35c0.109 0 0.137 0.063 0.077 0.154l-1.173 1.75v0.019c-0.227 0.34-0.611 0.543-1.019 0.538h-9.116c-0.412-2e-3 -0.795-0.212-1.019-0.557l-1.173-1.75c-0.059-0.091-0.033-0.154 0.077-0.154zm10.67 0c-0.51 0-0.923 0.413-0.923 0.923s0.413 0.923 0.923 0.923 0.923-0.413 0.923-0.923-0.413-0.923-0.923-0.923zm-2.462 0c-0.509 0-0.923 0.413-0.923 0.923s0.414 0.923 0.923 0.923c0.51 0 0.924-0.413 0.924-0.923s-0.414-0.923-0.924-0.923zm-3.076 0c-0.51 0-0.924 0.413-0.924 0.923s0.414 0.923 0.924 0.923c0.509 0 0.923-0.413 0.923-0.923s-0.414-0.923-0.923-0.923zm-2.462 0c-0.51 0-0.923 0.413-0.923 0.923s0.413 0.923 0.923 0.923 0.923-0.413 0.923-0.923-0.413-0.923-0.923-0.923z"/>
</svg>

<svg xmlns="http://www.w3.org/2000/svg" style="isolation:isolate" width="16" height="16" viewBox="0 0 16 16">
 <defs>
  <style id="current-color-scheme" type="text/css">
   .ColorScheme-Text { color:#ebdbb2; } .ColorScheme-Highlight { color:#458588; }
  </style>
  <linearGradient id="arrongin" x1="0%" x2="0%" y1="0%" y2="100%">
   <stop offset="0%" style="stop-color:#d79921; stop-opacity:1"/>
   <stop offset="100%" style="stop-color:#b57614; stop-opacity:1"/>
  </linearGradient>
  <linearGradient id="aurora" x1="0%" x2="0%" y1="0%" y2="100%">
   <stop offset="0%" style="stop-color:#83a598; stop-opacity:1"/>
   <stop offset="100%" style="stop-color:#b16286; stop-opacity:1"/>
  </linearGradient>
  <linearGradient id="fitdance" x1="0%" x2="0%" y1="0%" y2="100%">
   <stop offset="0%" style="stop-color:#8ec07c; stop-opacity:1"/>
   <stop offset="100%" style="stop-color:#458588; stop-opacity:1"/>
  </linearGradient>
  <linearGradient id="oomox" x1="0%" x2="0%" y1="0%" y2="100%">
   <stop offset="0%" style="stop-color:#458588; stop-opacity:1"/>
   <stop offset="100%" style="stop-color:#928374; stop-opacity:1"/>
  </linearGradient>
  <linearGradient id="rainblue" x1="0%" x2="0%" y1="0%" y2="100%">
   <stop offset="0%" style="stop-color:#b8bb26; stop-opacity:1"/>
   <stop offset="100%" style="stop-color:#076678; stop-opacity:1"/>
  </linearGradient>
  <linearGradient id="sunrise" x1="0%" x2="0%" y1="0%" y2="100%">
   <stop offset="0%" style="stop-color: #fe8019; stop-opacity:1"/>
   <stop offset="100%" style="stop-color: #fabd2f; stop-opacity:1"/>
  </linearGradient>
  <linearGradient id="telinkrin" x1="0%" x2="0%" y1="0%" y2="100%">
   <stop offset="0%" style="stop-color: #83a598; stop-opacity:1"/>
   <stop offset="100%" style="stop-color: #83a598; stop-opacity:1"/>
  </linearGradient>
  <linearGradient id="60spsycho" x1="0%" x2="0%" y1="0%" y2="100%">
   <stop offset="0%" style="stop-color: #fb4934; stop-opacity:1"/>
   <stop offset="25%" style="stop-color: #fabd2f; stop-opacity:1"/>
   <stop offset="50%" style="stop-color: #fe8019; stop-opacity:1"/>
   <stop offset="100%" style="stop-color: #689d6a; stop-opacity:1"/>
  </linearGradient>
  <linearGradient id="90ssummer" x1="0%" x2="0%" y1="0%" y2="100%">
   <stop offset="0%" style="stop-color: #b16286; stop-opacity:1"/>
   <stop offset="20%" style="stop-color: #8ec07c; stop-opacity:1"/>
   <stop offset="50%" style="stop-color: #fabd2f; stop-opacity:1"/>
   <stop offset="100%" style="stop-color: #458588; stop-opacity:1"/>
  </linearGradient>
  <linearGradient id="cyberneon" x1="0%" x2="0%" y1="0%" y2="100%">
    <stop offset="0" style="stop-color:#83a598; stop-opacity:1"/>
    <stop offset="1" style="stop-color:#b16286; stop-opacity:1"/>
  </linearGradient>
 </defs>
 <path style="fill:currentColor" class="ColorScheme-Text" d="M 5.538 3.077 C 4.859 3.077 4.308 3.628 4.308 4.308 L 4.308 6.154 L 11.077 6.154 L 10.154 3.846 C 9.969 3.381 9.519 3.076 9.019 3.077 L 5.538 3.077 Z M 14.769 3.385 L 14.769 3.692 L 10.711 3.692 L 11.212 4.923 L 14.769 4.923 L 14.769 5.231 L 16 5.231 L 16 3.385 L 14.769 3.385 Z M 1.884 6.769 C 1.474 6.769 1.094 6.983 0.865 7.327 L 0 8.615 L 0 9.231 L 0.039 9.231 C 0.01 9.512 0.057 9.798 0.231 10.058 L 1.404 11.827 C 1.856 12.511 2.622 12.923 3.442 12.923 L 12.558 12.923 C 13.38 12.923 14.139 12.512 14.596 11.827 L 15.769 10.058 C 15.93 9.814 15.998 9.521 15.962 9.231 L 16 9.231 L 16 8.615 L 15.135 7.327 C 14.91 6.982 14.527 6.772 14.115 6.769 L 1.884 6.769 Z M 1.327 9.231 L 14.673 9.231 C 14.782 9.231 14.81 9.294 14.75 9.385 L 13.577 11.135 L 13.577 11.154 C 13.35 11.494 12.966 11.697 12.558 11.692 L 3.442 11.692 C 3.03 11.69 2.647 11.48 2.423 11.135 L 1.25 9.385 C 1.191 9.294 1.217 9.231 1.327 9.231 L 1.327 9.231 Z M 12 9.231 C 11.49 9.231 11.077 9.644 11.077 10.154 C 11.077 10.664 11.49 11.077 12 11.077 C 12.51 11.077 12.923 10.664 12.923 10.154 C 12.923 9.644 12.51 9.231 12 9.231 Z M 9.538 9.231 C 9.029 9.231 8.615 9.644 8.615 10.154 C 8.615 10.664 9.029 11.077 9.538 11.077 C 10.048 11.077 10.462 10.664 10.462 10.154 C 10.462 9.644 10.048 9.231 9.538 9.231 Z M 6.462 9.231 C 5.952 9.231 5.538 9.644 5.538 10.154 C 5.538 10.664 5.952 11.077 6.462 11.077 C 6.971 11.077 7.385 10.664 7.385 10.154 C 7.385 9.644 6.971 9.231 6.462 9.231 Z M 4 9.231 C 3.49 9.231 3.077 9.644 3.077 10.154 C 3.077 10.664 3.49 11.077 4 11.077 C 4.51 11.077 4.923 10.664 4.923 10.154 C 4.923 9.644 4.51 9.231 4 9.231 Z"/>
</svg>
